teeny/outline/bold.svg

<svg width="15" height="15" viewBox="0 0 15 15" fill="none" xmlns="http://www.w3.org/2000/svg">
<path d="M3.5 7.5H8.5C10.1569 7.5 11.5 6.15685 11.5 4.5C11.5 2.84315 10.1569 1.5 8.5 1.5H3.57921C3.53546 1.5 3.5 1.53546 3.5 1.57921V7.5ZM3.5 7.5H9.5C11.1569 7.5 12.5 8.84315 12.5 10.5C12.5 12.1569 11.1569 13.5 9.5 13.5H3.58911C3.53989 13.5 3.5 13.4601 3.5 13.4109V7.5Z" stroke="black"/>
</svg>

<svg viewBox="0 0 15 15" xmlns="http://www.w3.org/2000/svg"><path fill="none" stroke="#000" d="M3.5 7.5h5c1.65 0 3-1.35 3-3 0-1.66-1.35-3-3-3H3.57c-.05 0-.08.03-.08.07v5.92Zm0 0h6c1.65 0 3 1.34 3 3 0 1.65-1.35 3-3 3H3.58c-.05 0-.09-.04-.09-.09V7.49Z"/></svg>
